svg/600/sharp/syringe-fill.svg

<svg xmlns="http://www.w3.org/2000/svg" width="48" height="48" viewBox="0 -960 960 960"><path d="m261.434-690.261-52.478-53.478-53.218 53.218-52.739-51.74 158.61-160.61 51.174 54.74-51.087 53.218 52.478 51.912 150.261-148.695 51.174 51.174-53.435 56 78.087 76.521-139.652 140.218 53.304 51.74 138.088-138.653 72.434 71.434-139.653 138.088 53.305 53.739L716.74-531.522 860.567-388.13l-108.262 81.695 178.783 179.914H826.174L699.565-253.13 616.74-145.433 220.348-543.26l-54.435 55-52.74-53.74 148.261-148.261Z"/></svg>

<svg xmlns="http://www.w3.org/2000/svg" width="48" height="48" viewBox="0 -960 960 960"><path d="m261.43-690.26-52.47-53.48-53.22 53.22L103-742.26l158.61-160.61 51.17 54.74-51.08 53.22L314.17-743l150.26-148.7 51.18 51.18-53.44 56L540.26-708 400.61-567.78l53.3 51.74L592-654.7l72.43 71.44-139.65 138.09 53.31 53.74 138.65-140.09 143.83 143.39-108.27 81.7 178.79 179.91H826.17l-126.6-126.61-82.83 107.7-396.39-397.83-54.44 55L113.17-542l148.26-148.26Z"/></svg>
